!! 00000] TT[WS
!!!OTL: Dui Hua
!!!ARE: Asia, China,ÿShanxi Linyi
!! Ethnic Group: Han
!! WI, 167 (1)
!!!SCT: J0201
!!!YEM: Copyright 1995, estate of Helmut Schaffrath.
**kern
*ICvox
*Ivox
*M2/4
*k[b-e-]
*B-:
{8r
8ddd
8fff
16ddd
16ccc
=1
8fff
8ddd
4ccc
=2
8r
8ddd
8fff
16ddd
16ccc
=3
8.bb-
16ccc
16bb-
16gg
8bb-}
=4
{8r
8aa
8ddd
16ccc
16bb-
=5
8ccc
16aa
16gg
16ff
16dd
8ff
=6
8r
8aa
8ddd
16ccc
16bb-
=7
16ccc
16fff
16aa
16gg
4ff}
==
!!!AGN: Xiaodiao, Duihua. Qingge
!!!ONB: ESAC (Essen Associative Code) Database: CHINA
!!!AMT: simple duple
!!!AIN: vox
!!!EED: Helmut Schaffrath
!!!EEV: 1.0
*-
